X:1
T:The Lowlands of Holland
M:2/2
L:1/4
K:G
 G| D3/2 E/2 G3/2 A/2| G2 G e| d B A G| E3|G/2-E/2| D E G3/2 A/2| G2 G e|\
 de/2-f/2 g B| d3| d| g f e d| e- d c B| A3/2 B/2c/2-B/2A/2-G/2| E2 E3/2|\
 G/2| D3/2- E/2 G G| G2 G e| d/2 B3/2 A3/2 B/2| G3||
